X:150
T: Drei Seidenweber (2-52) S. 165
N: P0925
O: Lothringen
S: PINCK, Louis: Verklingende Weisen, Bd 2, Metz 1928]
R: Werbung, Beischlaf]
M: 6/8
L: 1/16
K: G
D2 | D2GGGGG2A2B2 | B4A2A4z2 |
G3FG2D4
B2 | B2d2d2dddde2 | c4c2c4
d2 | B2B2BBd2c2B2 | A2d2d2d4
B2 | G4A2A3GA2 |
G6A6 | B4B2d2c2A2 | G8-G2

@@@ Tune index: 7700
